t T40
a V15>f+1&f+8L16bgedc+dc+8.<ba4>a2&af+cc-ed+agg2&ge<ba>dc+gf+f+4.g+ad8d32e32f+8eedc+<bb32>c+32d8.c+<ba2>f+1&f+8bgedc+dc+8.<ba4>a2&af+cc-ed+agg2&ge<ba>dc+gf+f+4.g+ad8d32e32f+8eedc+<bb32>c+32d8.c+<ba2>c+4&c+L32dc+c-c+L16<a>a4.c8c-8b8.agf+L32g4&gf+edL16c+<ba+b>c+8.de8.f+g4f+8edc+c-c+d32e32d8c-2d4&df+edb4.ag+ea<a8b8.>c+32d32c+8.<ba4>d4.f+ee4.gf+f+4.agg2<a4&a>c+eggef+4gad4&df+ab+b4.d8c+eg4<b8a8>ef+32g.f+8ed32c+32c-8c+L64dc+dc+dc+dc+L16c+dd2
b V15>d1&dr2.r8L16cc-c8ac<b4r4b8>edef+ge<a4r1r1r4>d1&d4r2.r8cc-c8ac<b4r4b8>edef+ge<a4r1r1r4L8O2a>ag<gf+>f+e<ed+>d+f+c-e>ed<dc+>c+<b<ba+b>c+<a+b>gef+c-ba<ag+>g+f+<f+e>ed<dc+>c+de<a>ag<gf+>f+g<gg+>g+a<aa+>a+bc-e>ed<dc+>c+<a>c+d<dcb+b<ba>ag<gf+>f+e<ed>dc+<a>dgaga<a>d2
c V15L8<d>dc+<c+c-ba<ag>gg+<g+a>ag<gf+>f+e<ed+>d+c-b<e>ed<dc+>c+<a>ad>dc+<c+c-bg+eade<eL16ab>c+degf+eL8d>dc+<c+c-ba<ag>gg+<g+a>ag<gf+>f+e<ed+>d+c-b<e>ed<dc+>c+<a>ad>dc+<c+c-bg+eade<eL16ab>c+degf+e
