t t84
a v12r2l8da>e4o3a+>fb+4<a>ecb+<f>f<e>e<da>e4<g>d4gcg>dfe2<da>e4o3a+>fb+4<a>ecb+<f>f<e>e<da>e4<g>g<a>ada>egl2dfdl4edcd-l2co3go5fefdl4edcd-c2o3gao5g2f+2>f2edc2dec2.<afefag2aa+>c2dec<agad+fl8gaa+>cf2l4edc2def2edl8<a2&agab+l1ab&b>d-2
b v12r2<d.d8<b-.b-8a>cfed.d8<g.g8b+.g8>c2d.d8<b-.b-8a>cfed.d8<gal1>drrrrrl8o5b+afga4g4efa>cedcdd2.ra<dd4ddd4dcc4ccc4ccc4ccc4c<aa4aaa4ab-b-4b-b-b-4b-gg4ggg4gaa4aaa4aaa4aaa4a>dd4ddd4dcc4ccc4cdd4ddd4ddd4ddd4ddd4ddd4ddd4ddd4ddd4ddd4dd-2
c v15o6del8fec<a>d4.dc<afga4g4efa>ce4f4c2.e4fec<a>d4.dc<afga4g4efa>cedcdd2d4e4fec<a>d4.dc<afga4g4efa>ce4f4c2.e4fec<a>d4.dl1rrra2l4gfe2fge2.c<a2.b+a+2>cde2fge1c1a2gfe2fga2gfedefa2gfedc+de1.
