t T126
a V15<L8f.f16fccc<a>cfgfcfgab->d<b-agfc.c16cf.f16ff<a>fc1&c4L32b-8.&b-b-L4a>cfff2f2b-.aa-8a-8b8af2.<d-d-deL8f2&ffga>d2&d<bb>dL4dc<b-b-L8>d-2&d-d-d-d-d2<a4a4>d2&d<bbbb-2b-4b-4>g-2&g-g-gab-2&b-<b->cdL2de<a.
b V15L8a.a16agggfgaa+agaa+>cdfdc<a+ag.g16ga.a16aafaL4g1&grfgab->cf2e8.&e32d32d.c<b8b8>d8c<a2<a8.&a32a32aab>d-L8d2&ddefg2&gddff4e4d4c4a2&ab-agf2d4f4g2&gagff2e4c4>c2&c<ab->cd2&d<defL2b-af.
c V15L1.rrrr-2. L4<fee-d<a2b-2>fc<f>f<fa>cf<a2a2>d<afdb>dg<g>c2ce<a>d-e<a>defdc-dg<g>ccgb-ag-d<dgab-g>gcb-cfc<f2
