t t160
a v15r2l32o2f+a16>cd+f+16a>cd+16f+a>c16d+v12l8o1aaaaaaggaaaaaaggo4ab>cde4cgf+4d&d32d16e32fedc<b4.a4>dc<aag+4&g+32g+16a32b4e4ab>cde4cgf+4d&d32d16e32fedc<b4.a4>dc<aag+4&g+32l16g+a32b4e4v12<a8bb+b>cded8efefgav15>e8e8>efedefedefedv12o3a8bb+b>cded8efefgav15>e8e8l32<eg+16b>eg+16>ed<b16g+fl16ed32<bg+edr1r1l32>ea16eae16aea16.g+8eg16ege16geg16.f+8df16dfd16fdf16.e8cd+16cd+c16d+cd+16.l8e<aa+a>c+<aa+a>d<aa+a>e<aa+a>fl32ea16eae16aea16.g+8eg16ege16geg16.f+8df16dfd16fdf16.e8cd+16cd+c16d+cd+16.l8e<aa+a>c+<aa+a>d<aa+a>e<aa+a>f<a4b4>c4d4v12<efl16bfdc-af+d<a>g+ec<g+
b v15r2l32<f+a16>cd+f+16a>cd+16f+a>c16d+r1r1v12o4c8e8a8g+8g4e8&ee16ff+4d4a8g8f8e8d4.&dd16ef4c4<b4.&bb16>cd4<g+4>c8e8a8g+8g4e8&ee16ff+4d4a8g8f8e8d4.&dd16ef4c4<b4.&bb16>cl4d<g+v15>fa>cfv12<g+8g+r2r8v15fa>cfv12<g+8g+r2l8ro1aa+a>c+<aa+a>d<aa+a>e<aa+a>f<aa+a>c+<aa+a>d<aa+a>e<aa+a>f>aa+a>c+<aa+a>d<aa+a>e<aa+a>fo1aa+a>c+<aa+a>d<aa+a>e<aa+a>f>aa+a>c+<aa+a>d<aa+a>e<aa+a>fo1a>a<g+>g+<g>g<f+>f+<e>e<d>d<c>cb<b
c v12l1rrrl8o1a>ac-bcb+d>do1a>ac-bcb+<a>a<ffffffffeeeeeeeea>ac-bcb+d>do1a>ac-bcb+<a>a<ffffffffeeeeeeee>ffeeddcc<bb2.&b>ffeeddcc<bb2.&bl1rrrra8l4.aa8aa8aa8ar1r1a8aa8aa8aa8al8o4efeg+efeav15l4>eff+g+
