a t165v15l8
a r>efc<ag+a>cegf+dfe4crefc<ag+a>cegf+dfe4crg+afdc+dfab+bga+a4frg+afdc+dfab+bga+l4af8>ec<afec<afec<afl16e.fg+.>e.fg+.>e.fg+.>e.fg+.l8o4dfdfag+4fdfag+fg+b+bab+a>ced+4c<a>cgf+dfb+bv12c<a16b16b+a>d<ab+ab+a16b16b+a>d<ab+aag16a16bgagbgag16a16bgagbgfe16f16gfafgffe16f16gfafgfed+16e16geaegeed+16e16geaegg+b+a16b16b+a>d<ab+ab+a16b16b+a>d<ab+aag16a16bgagbgag16a16bgagbgadfdadfdb+fgfb+fgf>d<gag>d<gag>d<bg+fl16c+efgg+>cde
b v13l8o1aaaaaaaaaaaaaaaaaaaaaaaaaaaaaaaa>dddddddddddddddddddddddddddddddd<a2.l4>ea1&a1dfg+bl8dfdfag+rfdfag+fg+b+bab+a>ced+rc<a>cgf+dfb+bf4c-cf4c-cf4c-cf4c-ce4c-ce4c-ce4c-ce4c-cd4c-cd4c-cd4c-cd4c-cc4.c2&ce4.f+4.g+4f4c-cf4c-cf4c-cf4c-ce4c-ce4c-ce4<bb>e4cc<a+4>fa<a+4>fa+d+4ga+d+4ga+e4c-ce4c-ce4c-ce4c-c
c v10l8rccccccccdd+eff+4grccccccccdd+eff+4grffffffffgg+aa+b4b+rffffffffgg+aa+>c4c+l1rrrv13l16o2e.fg+.>e.fg+.>e.fg+.>e.fg+.r1r1r1r1v15a2.&a8aba2g2a2g1.f2.&f8fgf2d2e1g+1a2.&a8aba2g2a2g1.a2.&a8aa+a2g2a1g+1
