t t164
a v13o2a1&a1l8a1.&agab+f1&f1f1.&f>fecdddddc+d<agggggabg>cccccc-c<ga+a+a+a+ra>gef.d.fe.c.ed+.c-.d+r4e4<agab+a>edecec-e<a>e<g+>e<agab+a>edecec-e<a>e<g+>e<aaaaagab+aaaaabb+a>dddddcdfdddddefdeeeeedc-deeeeefe<baaaaagab+aaaaa>ed<baaaaagab+aaaaabb+a>dddddcdfdddddefdeeeeedc-deeeeefe<bgggggaa+>c+<a4a4.l16>gaefc-c+l8d2&dcdal4red<bl8aaaaag+abaaaaabb+ab2&bab>f+l4red<bl8aaaaaa+>c+<a+>d<a>dad+c-d+bl16.e4&e<b8&b32>f4&fc8&c32g4&gl8d&d32g+4e4edec-edec-efedc<bag+aba>e<aba>e<aba>edc<bagag>d<gag>d<gag>dc<bag>cdc<g>cdc<g>cdcgfedc<b2&b>afdr2e4<b4a2&a>gecr2f4c4eeeeedeceeeeedc<br4a4.>edecec-e<a>e<g+>e<agab+a>edecec-e<a>e<g+>e
b v15l8b2&bab>cd4e2c-4c4.<ba1.b2&bab>cd4e2c-4c4.<ba1.>d2&dc+del4fagfl8e2&ed+efl4ga+agl8.fdf8ece8d+c-d+8l4eg+b1<eag+bl8a2&aeabl4b+abg+a.b8b+2.b>dc<b.a8f1.g+.a8b2.>dec-c1.&cr<a.b8b+2.b>dc<b.a8f1.g+.a8b2.>dec-c+1v12r<ab>c+<f.l16dfl8agfal4rg+fg+l8a2&ag+abl4>dc<bad.l16c-dl8fedfl4rbag+l8a2&agegl32f8&fd8&df8.f+8&f+d+8&d+f+8.g+8&g+e8&eg+8.a8&af8&fa8.b8&bg8&gb8.r2e4.l8f+g+2&g+abab+bag+v15a4.b>c2&cdedfedcc-4.cd2&defegfede4.c<g1agfef1v12r4efl4g+fa1rd8e8fde1d1re1ag+bl8a2&aeabl4b+abg+
c v12l8d2&dcdea2f4d4e4.dc1.d2&dcdefga4.gf4e4.dc1.f2&fefgl4ab+bal8g2&gf+gal4a+>c+ec+l8.<afa8geg8f+d+f+8r2c1.l4c-dc1ecdc-c2e2.dfed2c-2.c<bab.>c8d2.fg+fe1&ed+dcc2e2.dfed2c-2.c<bab.>c8d2.fg+fl8e2&ec+egv15l4r>efgl8f2&fedfl4ec-cde1.&erl8d2&dcc-cc-4g2f4e2&edc+el32d8&d<a8&a>d8.d+8&d+<b8&b>d+8.e8&e<b8&b>e8.f8&fc8&cf8.g8&gd8&dg8.g+4r4l4.<g+a8b>c8d2f4d4v12cd8el8fgfgfagfed4.ef4.gagagbagfg4.ec4.de2c4<bga2&ab+bav15r>cdcfedcd4.e<b2rb>cdedcc-d4.ec2r<ab>cdc<ba>c2&c<bab+b2&bag+br4a1.&a4
